X: 4426
M: C
L: 1/8
K: D
f>ed>B A<F F>B | A<F d>B A<F FA |\
f>ed>B A<F F>B | A<d e>f d2-d :: g |\
(3fed a>d (3fed a>d |
c>eA>e c>eA>g |\
(3fed a>d (3fed a>d | B<d c<e d2-d H:: \
[K:=c]\
[K:G]\
c |\
e>fg>e d>Bg>e | d<B B>G F<A A<d |\
e>fg>e d>Bg>e | d<B A>B "^D.C."G3 :|


